Costumes/q-block.svg

<?xml version="1.0" encoding="UTF-8" standalone="no"?>
<svg
   version="1.1"
   width="63.404907"
   height="79.469749"
   id="svg6"
   sodipodi:docname="q-block.svg"
   xmlns:inkscape="http://www.inkscape.org/namespaces/inkscape"
   xmlns:sodipodi="http://sodipodi.sourceforge.net/DTD/sodipodi-0.dtd"
   xmlns="http://www.w3.org/2000/svg"
   xmlns:svg="http://www.w3.org/2000/svg">
  <defs
     id="defs10" />
  <sodipodi:namedview
     id="namedview8"
     pagecolor="#ffffff"
     bordercolor="#000000"
     borderopacity="0.25"
     inkscape:showpageshadow="2"
     inkscape:pageopacity="0.0"
     inkscape:pagecheckerboard="0"
     inkscape:deskcolor="#d1d1d1" />
  <!-- Exported by Scratch - http://scratch.mit.edu/ -->
  <g
     id="ID0.9514507986605167"
     transform="translate(-0.56227281,-0.54190911)">
    <path
       id="ID0.33620395278558135"
       fill="#ff9400"
       d="m 329,416 c 2.883,4.45 9.146,5.521 9,13 -2.503,-0.17 -3.131,1.536 -4,3 -5.109,-0.224 -4.443,-6.224 -8,-8 -10.647,-1.143 -10.693,5.549 -18,6 -11.419,0.705 -23.618,-9.873 -27,-20 -5.875,-17.593 2.198,-45.075 14,-53 7.63,-5.124 22.071,-6.381 31,0 6.893,4.925 11.124,20.814 11,32 -0.131,11.743 -2.776,17.906 -8,27 z m -20,4 c 2.651,-0.356 5.868,-2.068 7,-6 -0.979,-3.688 -4.379,-4.954 -6,-8 6.223,-7.67 7.712,1.503 15,3 5.747,-12.67 2.689,-33.299 -3,-45 -36.375,-22.637 -44.531,60.237 -13,56 z"
       transform="matrix(0.84539878,0,0,0.84539878,-226.85,-294.5)" />
    <path
       id="ID0.25073340628296137"
       d="m 322,364 c 5.689,11.701 8.747,32.33 3,45 -7.288,-1.497 -8.777,-10.67 -15,-3 1.621,3.046 5.021,4.312 6,8 -1.132,3.932 -4.349,5.644 -7,6 -31.531,4.237 -23.375,-78.637 13,-56 z m -15,51 c -6.829,-4.285 6.356,-24.092 13,-15 -0.789,-15.732 -3.705,-32.899 -21,-29 -9.63,12.405 -8.639,42.665 8,44 z"
       transform="matrix(0.84539878,0,0,0.84539878,-226.85,-294.5)" />
    <path
       id="ID0.5218712696805596"
       d="m 344,427 c 0,3 0,6 0,9 -5.124,0.543 -6.415,4.918 -10,7 -1.667,0 -3.333,0 -5,0 -0.939,-4.394 -4.312,-6.355 -8,-8 -22.445,15.141 -49.851,-4.257 -52,-28 0,-6.333 0,-12.667 0,-19 6.474,-19.526 18.254,-33.745 39,-39 1,0 2,0 3,0 29.955,-0.39 34.158,41.866 23,65 2.985,4.682 5.775,9.558 10,13 z m -7,-38 c 0.124,-11.186 -4.107,-27.075 -11,-32 -8.929,-6.381 -23.37,-5.124 -31,0 -11.802,7.925 -19.875,35.407 -14,53 3.382,10.127 15.581,20.705 27,20 7.307,-0.451 7.353,-7.143 18,-6 3.557,1.776 2.891,7.776 8,8 0.869,-1.464 1.497,-3.17 4,-3 0.146,-7.479 -6.117,-8.55 -9,-13 5.224,-9.094 7.869,-15.257 8,-27 z"
       transform="matrix(0.84539878,0,0,0.84539878,-226.85,-294.5)" />
  </g>
</svg>

<svg version="1.1" width="64" height="80" xmlns="http://www.w3.org/2000/svg" xmlns:xlink="http://www.w3.org/1999/xlink">
  <!-- Exported by Scratch - http://scratch.mit.edu/ -->
  <g id="ID0.9514507986605167">
    <path id="ID0.33620395278558135" fill="#FF9400" d="M 329 416 C 331.883 420.450 338.146 421.521 338 429 C 335.497 428.830 334.869 430.536 334 432 C 328.891 431.776 329.557 425.776 326 424 C 315.353 422.857 315.307 429.549 308 430 C 296.581 430.705 284.382 420.127 281 410 C 275.125 392.407 283.198 364.925 295 357 C 302.630 351.876 317.071 350.619 326 357 C 332.893 361.925 337.124 377.814 337 389 C 336.869 400.743 334.224 406.906 329 416 Z M 309 420 C 311.651 419.644 314.868 417.932 316 414 C 315.021 410.312 311.621 409.046 310 406 C 316.223 398.330 317.712 407.503 325 409 C 330.747 396.330 327.689 375.701 322 364 C 285.625 341.363 277.469 424.237 309 420 Z " transform="matrix(0.8453987836837769, 0, 0, 0.8453987836837769, -226.85, -294.5)"/>
    <path id="ID0.25073340628296137" d="M 322 364 C 327.689 375.701 330.747 396.330 325 409 C 317.712 407.503 316.223 398.330 310 406 C 311.621 409.046 315.021 410.312 316 414 C 314.868 417.932 311.651 419.644 309 420 C 277.469 424.237 285.625 341.363 322 364 Z M 307 415 C 300.171 410.715 313.356 390.908 320 400 C 319.211 384.268 316.295 367.101 299 371 C 289.370 383.405 290.361 413.665 307 415 Z " transform="matrix(0.8453987836837769, 0, 0, 0.8453987836837769, -226.85, -294.5)"/>
    <path id="ID0.5218712696805596" d="M 344 427 C 344 430 344 433 344 436 C 338.876 436.543 337.585 440.918 334 443 C 332.333 443 330.667 443 329 443 C 328.061 438.606 324.688 436.645 321 435 C 298.555 450.141 271.149 430.743 269 407 C 269 400.667 269 394.333 269 388 C 275.474 368.474 287.254 354.255 308 349 C 309 349 310 349 311 349 C 340.955 348.610 345.158 390.866 334 414 C 336.985 418.682 339.775 423.558 344 427 Z M 337 389 C 337.124 377.814 332.893 361.925 326 357 C 317.071 350.619 302.630 351.876 295 357 C 283.198 364.925 275.125 392.407 281 410 C 284.382 420.127 296.581 430.705 308 430 C 315.307 429.549 315.353 422.857 326 424 C 329.557 425.776 328.891 431.776 334 432 C 334.869 430.536 335.497 428.830 338 429 C 338.146 421.521 331.883 420.450 329 416 C 334.224 406.906 336.869 400.743 337 389 Z " transform="matrix(0.8453987836837769, 0, 0, 0.8453987836837769, -226.85, -294.5)"/>
  </g>
</svg>
